X: 36326
T: Sean Bui
R: jig
M: 6/8
K: Gmajor
|:GBd edB ege dBG|GBd edB e2 f g3|
GBe edB ege dBG|GBe edB e2 f g3:|
|:bag agd efg dBG|bag agd e2 a a3|
bag agd efg dBG|GBd edB e2 f g3:|

